X: 5
M: C|
L: 1/8
P: AA BB ad lib.
Q: 1/2=76 "flowing"
K: Gm
V: 1
"A"[|] G2 |\
d4 c2dc | B2c2 A2d2 |\
^F2D2 G2A2 | A4 G4 :|\
"B"|:\
f2dc B2d2 | e2cB A2F2 |
b4 a2b2 | g2a2 ^f2d2 |\
g2dc B2eA | A4 G4 :|
V: 2
|: C2DE F2F2 | E2ED C2A,2 | B,2C2 B,2B,2 | A,2C2 D4 |
V: 3 clef=bass middle=d
g2 | "Gm"g4- "Cm"g2"D"^f2 | "Gm"g2"C"c2 "D"d2"Gm"Bc | "D"d2dc "Gm"B2"Cm"c2 | "D"d4 "Gm"G4 :|
|: "F"A2"Bb"Bc d2B2 | "Cm"c2e2 "F"f2fe | "Bb"d2"F"f2 "Bb"b2"Eb"e2 | "F"f4 "Bb"B4 |
"Bb"B4 "F"f4 | "Gm"g4 "D"d4 | "Gm"B2"D"^F2 "Gm"G2"Cm"c2 | "D"d4 "Gm"G4 :|


